content/images/home/tuned_twitter.svg

<svg width="303" height="94" viewBox="0 0 303 94" fill="none" xmlns="http://www.w3.org/2000/svg">
<g clip-path="url(#clip0_93_55)">
<rect width="303" height="94" rx="8" fill="#E2EFF6"/>
<path d="M234.606 -4.64349C228.488 -1.86271 221.894 -0.0353374 215.061 0.838625C222.052 -3.37228 227.455 -10.0462 229.998 -18.0707C223.403 -14.0982 216.094 -11.3174 208.387 -9.72836C202.11 -16.5611 193.291 -20.5337 183.28 -20.5337C164.609 -20.5337 149.355 -5.2791 149.355 13.5508C149.355 16.2521 149.673 18.874 150.229 21.337C121.944 19.9069 96.7583 6.32074 79.9941 -14.2571C77.0544 -9.25165 75.386 -3.37228 75.386 2.8249C75.386 14.6631 81.3448 25.1506 90.5611 31.1095C84.9201 31.1095 79.6763 29.5204 75.0682 27.1369C75.0682 27.1369 75.0682 27.1369 75.0682 27.3753C75.0682 43.9011 86.8269 57.7255 102.399 60.8241C99.5391 61.6186 96.5199 62.0159 93.4213 62.0159C91.2762 62.0159 89.131 61.7775 87.0653 61.3803C91.3556 74.8075 103.829 84.8183 118.846 85.0567C107.246 94.273 92.5474 99.6757 76.4983 99.6757C73.797 99.6757 71.0956 99.5168 68.3943 99.199C83.49 108.892 101.446 114.533 120.673 114.533C183.28 114.533 217.683 62.572 217.683 17.5233C217.683 16.0138 217.683 14.5836 217.603 13.0741C224.277 8.30701 229.998 2.26874 234.606 -4.64349Z" fill="white" fill-opacity="0.5"/>
<path d="M171.984 34.8226C170.513 35.4916 168.926 35.9312 167.283 36.1414C168.965 35.1284 170.264 33.5229 170.876 31.5925C169.289 32.5482 167.531 33.2171 165.677 33.5994C164.167 31.9557 162.046 31 159.637 31C155.146 31 151.476 34.6697 151.476 39.1995C151.476 39.8493 151.553 40.48 151.686 41.0726C144.882 40.7285 138.823 37.4602 134.79 32.5099C134.083 33.714 133.682 35.1284 133.682 36.6192C133.682 39.4671 135.115 41.99 137.333 43.4235C135.976 43.4235 134.714 43.0412 133.605 42.4678C133.605 42.4678 133.605 42.4678 133.605 42.5251C133.605 46.5006 136.434 49.8263 140.18 50.5717C139.492 50.7628 138.766 50.8584 138.021 50.8584C137.505 50.8584 136.988 50.8011 136.492 50.7055C137.524 53.9356 140.524 56.3438 144.137 56.4012C141.346 58.6183 137.81 59.918 133.95 59.918C133.3 59.918 132.65 59.8797 132 59.8033C135.631 62.1351 139.951 63.4921 144.576 63.4921C159.637 63.4921 167.913 50.9922 167.913 40.1551C167.913 39.792 167.913 39.4479 167.894 39.0848C169.5 37.938 170.876 36.4854 171.984 34.8226Z" fill="#3987CD"/>
</g>
<defs>
<clipPath id="clip0_93_55">
<rect width="303" height="94" rx="8" fill="white"/>
</clipPath>
</defs>
</svg>

<svg xmlns="http://www.w3.org/2000/svg" width="303" height="94" fill="none" viewBox="0 0 303 94"><g clip-path="url(#a)"><rect width="303" height="94" fill="#E2EFF6" rx="8"/><path fill="#fff" fill-opacity=".5" d="M234.606-4.643c-6.118 2.78-12.712 4.608-19.545 5.482 6.991-4.211 12.394-10.885 14.937-18.91-6.595 3.973-13.904 6.754-21.611 8.343-6.277-6.833-15.096-10.806-25.107-10.806-18.671 0-33.925 15.255-33.925 34.085 0 2.701.318 5.323.874 7.786-28.285-1.43-53.47-15.016-70.235-35.594-2.94 5.005-4.608 10.885-4.608 17.082 0 11.838 5.959 22.326 15.175 28.285-5.64 0-10.885-1.59-15.493-3.973v.238c0 16.526 11.759 30.35 27.331 33.45-2.86.794-5.88 1.19-8.978 1.19-2.145 0-4.29-.237-6.356-.635 4.29 13.428 16.764 23.438 31.781 23.677-11.6 9.216-26.299 14.619-42.348 14.619a69.49 69.49 0 0 1-8.104-.477c15.096 9.693 33.052 15.334 52.279 15.334 62.607 0 97.01-51.961 97.01-97.01 0-1.51 0-2.94-.08-4.449 6.674-4.767 12.395-10.805 17.003-17.717Z"/><path fill="#3987CD" d="M171.984 34.823a16.367 16.367 0 0 1-4.701 1.318 8.217 8.217 0 0 0 3.593-4.548 16.522 16.522 0 0 1-5.199 2.006c-1.51-1.643-3.631-2.599-6.04-2.599-4.491 0-8.161 3.67-8.161 8.2 0 .65.077 1.28.21 1.873a23.308 23.308 0 0 1-16.896-8.563 8.113 8.113 0 0 0-1.108 4.11c0 2.847 1.433 5.37 3.651 6.803-1.357 0-2.619-.382-3.728-.955v.057a8.206 8.206 0 0 0 6.575 8.047 8.065 8.065 0 0 1-3.688.133c1.032 3.23 4.032 5.639 7.645 5.696-2.791 2.217-6.327 3.517-10.187 3.517-.65 0-1.3-.038-1.95-.115a23.21 23.21 0 0 0 12.576 3.69c15.061 0 23.337-12.5 23.337-23.338 0-.363 0-.707-.019-1.07 1.606-1.147 2.982-2.6 4.09-4.262Z"/></g><defs><clipPath id="a"><rect width="303" height="94" fill="#fff" rx="8"/></clipPath></defs></svg>
